X: 266
T: Pa puoyio
L: 1/8
M: 2/4
K: G
e> g e A [I:setbarnb 1]| 
g e d B | 
e d g B | 
A GE2 | 
B A B d | 
A EG2 | 
e> g e B | 
d4 |]

@@@ Tune index: 9140
